flaticon/productivity/browser-4.svg

<svg xmlns="http://www.w3.org/2000/svg" width="32" height="32" viewBox="0 0 24 24">
    <path d="M 23.488281 0 L 0.511719 0 C 0.230469 0 0 0.226562 0 0.511719 L 0 23.488281 C 0 23.773438 0.230469 24 0.511719 24 L 23.488281 24 C 23.769531 24 24 23.773438 24 23.488281 L 24 0.511719 C 24 0.226562 23.769531 0 23.488281 0 Z M 1.019531 1.019531 L 22.980469 1.019531 L 22.980469 5.992188 L 1.019531 5.992188 Z M 1.019531 17.707031 C 1.359375 17.625 1.703125 17.585938 2.046875 17.585938 C 4.457031 17.585938 6.421875 19.546875 6.421875 21.957031 C 6.421875 22.300781 6.378906 22.644531 6.296875 22.980469 L 1.019531 22.980469 Z M 3.488281 13.679688 C 4.722656 13.894531 5.863281 14.367188 6.878906 15.082031 C 7.082031 15.226562 7.359375 15.203125 7.535156 15.027344 L 9.078125 13.480469 L 10.523438 14.925781 L 8.976562 16.46875 C 8.800781 16.644531 8.777344 16.921875 8.921875 17.125 C 9.636719 18.140625 10.109375 19.28125 10.324219 20.515625 C 10.367188 20.761719 10.578125 20.9375 10.828125 20.9375 L 13.011719 20.9375 L 13.011719 22.980469 L 7.34375 22.980469 C 7.410156 22.640625 7.441406 22.300781 7.441406 21.960938 C 7.441406 18.984375 5.019531 16.5625 2.046875 16.5625 C 1.703125 16.5625 1.359375 16.597656 1.023438 16.660156 L 1.023438 10.992188 L 3.066406 10.992188 L 3.066406 13.175781 C 3.066406 13.425781 3.242188 13.636719 3.488281 13.679688 Z M 22.980469 22.980469 L 14.035156 22.980469 L 14.035156 20.429688 C 14.035156 20.144531 13.804688 19.917969 13.523438 19.917969 L 11.246094 19.917969 C 11.007812 18.835938 10.589844 17.824219 9.996094 16.894531 L 11.605469 15.285156 C 11.699219 15.191406 11.753906 15.058594 11.753906 14.925781 C 11.753906 14.789062 11.699219 14.660156 11.605469 14.5625 L 9.441406 12.398438 C 9.242188 12.199219 8.917969 12.199219 8.71875 12.398438 L 7.109375 14.007812 C 6.179688 13.414062 5.167969 12.996094 4.085938 12.757812 L 4.085938 10.480469 C 4.085938 10.199219 3.859375 9.96875 3.574219 9.96875 L 1.019531 9.96875 L 1.019531 7.011719 L 22.980469 7.011719 Z M 22.980469 22.980469"/>
    <path d="M14.535156 2.730469L15.554688 2.730469 15.554688 4.285156 14.535156 4.285156zM17.667969 2.730469L18.691406 2.730469 18.691406 4.285156 17.667969 4.285156zM20.804688 2.730469L21.824219 2.730469 21.824219 4.285156 20.804688 4.285156zM14.992188 14.839844L14.261719 15.566406 14.984375 16.289062 15.714844 15.5625C16.023438 15.777344 16.382812 15.929688 16.769531 16L16.769531 17.027344 17.789062 17.027344 17.789062 16C18.175781 15.929688 18.53125 15.777344 18.84375 15.5625L19.574219 16.289062 20.292969 15.566406 19.566406 14.839844C19.78125 14.527344 19.933594 14.171875 20.003906 13.785156L21.035156 13.785156 21.035156 12.761719 20.003906 12.761719C19.933594 12.378906 19.78125 12.019531 19.566406 11.707031L20.292969 10.980469 19.574219 10.257812 18.84375 10.984375C18.53125 10.773438 18.175781 10.621094 17.789062 10.546875L17.789062 9.519531 16.769531 9.519531 16.769531 10.546875C16.382812 10.621094 16.023438 10.773438 15.714844 10.984375L14.984375 10.257812 14.261719 10.980469 14.992188 11.707031C14.777344 12.019531 14.625 12.378906 14.554688 12.761719L13.523438 12.761719 13.523438 13.785156 14.554688 13.785156C14.625 14.171875 14.777344 14.527344 14.992188 14.839844zM17.277344 11.523438C18.246094 11.523438 19.03125 12.308594 19.03125 13.273438 19.03125 14.242188 18.246094 15.027344 17.277344 15.027344 16.3125 15.027344 15.527344 14.242188 15.527344 13.273438 15.527344 12.308594 16.3125 11.523438 17.277344 11.523438zM17.277344 11.523438"/>
</svg>

<svg xmlns="http://www.w3.org/2000/svg" width="32" height="32" viewBox="0 0 24 24">
    <path d="M23.488 0H.512A.511.511 0 0 0 0 .512v22.976c0 .285.23.512.512.512h22.976a.511.511 0 0 0 .512-.512V.512A.511.511 0 0 0 23.488 0zM1.02 1.02h21.96v4.972H1.02zm0 16.687a4.38 4.38 0 0 1 5.402 4.25c0 .344-.043.688-.125 1.023H1.02zm2.468-4.027a8.327 8.327 0 0 1 3.39 1.402.51.51 0 0 0 .657-.055l1.543-1.547 1.445 1.446-1.546 1.543a.51.51 0 0 0-.055.656 8.327 8.327 0 0 1 1.402 3.39.508.508 0 0 0 .504.422h2.184v2.043H7.344a5.404 5.404 0 0 0-6.32-6.32v-5.668h2.042v2.184c0 .25.176.46.422.504zm19.492 9.3h-8.945v-2.55a.511.511 0 0 0-.512-.512h-2.277a9.299 9.299 0 0 0-1.25-3.023l1.61-1.61a.515.515 0 0 0 0-.723L9.44 12.399c-.199-.199-.523-.199-.722 0l-1.61 1.61a9.299 9.299 0 0 0-3.023-1.25V10.48a.511.511 0 0 0-.512-.511H1.02V7.012h21.96zm0 0"/>
    <path d="M14.535 2.73h1.02v1.555h-1.02zm0 0M17.668 2.73h1.023v1.555h-1.023zm0 0M20.805 2.73h1.02v1.555h-1.02zm0 0M14.992 14.84l-.73.726.722.723.73-.727A2.69 2.69 0 0 0 16.77 16v1.027h1.02V16c.386-.07.741-.223 1.054-.438l.73.727.719-.723-.727-.726c.215-.313.368-.668.438-1.055h1.031v-1.023h-1.031a2.739 2.739 0 0 0-.438-1.055l.727-.727-.719-.722-.73.726a2.838 2.838 0 0 0-1.055-.437V9.52h-1.02v1.027a2.81 2.81 0 0 0-1.054.437l-.73-.726-.723.722.73.727a2.739 2.739 0 0 0-.437 1.055h-1.032v1.023h1.032c.07.387.222.742.437 1.055zm2.285-3.317a1.753 1.753 0 1 1 0 3.504 1.753 1.753 0 0 1 0-3.504zm0 0"/>
</svg>
